incomeartour/img/countries/europe/ukraine.svg

<svg width="26" height="25" viewBox="0 0 26 25" fill="none" xmlns="http://www.w3.org/2000/svg">
<g clip-path="url(#clip0_394_8478)">
<path d="M0.0673828 12.5H25.0673V20.2586C25.0673 20.4967 24.8743 20.6897 24.6363 20.6897H0.498437C0.2604 20.6897 0.0673828 20.4967 0.0673828 20.2586V12.5Z" fill="#FFE15A"/>
<path d="M25.0673 12.5002H0.0673828V4.7416C0.0673828 4.50356 0.2604 4.31055 0.498437 4.31055H24.6363C24.8744 4.31055 25.0674 4.50356 25.0674 4.7416L25.0673 12.5002Z" fill="#4173CD"/>
</g>
<defs>
<clipPath id="clip0_394_8478">
<rect width="25" height="25" fill="white" transform="translate(0.0673828)"/>
</clipPath>
</defs>
</svg>

<svg width="26" height="25" fill="none" xmlns="http://www.w3.org/2000/svg"><g clip-path="url(#clip0_394_8478)"><path d="M.067 12.5h25v7.759a.431.431 0 01-.43.43H.497a.431.431 0 01-.43-.43V12.5z" fill="#FFE15A"/><path d="M25.067 12.5h-25V4.742c0-.238.193-.431.431-.431h24.138a.43.43 0 01.431.43v7.76z" fill="#4173CD"/></g><defs><clipPath id="clip0_394_8478"><path fill="#fff" transform="translate(.067)" d="M0 0h25v25H0z"/></clipPath></defs></svg>
